build/img/cloud-logo-wrong-5.svg

<svg width="151" height="96" viewBox="0 0 151 96" fill="none" xmlns="http://www.w3.org/2000/svg">
<circle cx="20" cy="52" r="20" fill="#D1D8E1"/>
<circle cx="116.5" cy="61.5" r="34.5" fill="#D1D8E1"/>
<circle cx="70.5" cy="12.5" r="12.5" fill="#D1D8E1"/>
<g clip-path="url(#clip0)">
<path d="M113.06 38.1835C112.66 38.1835 112.253 38.1835 111.849 38.2201C110.994 28.3191 102.398 20.5872 92.2008 20.5872C89.4913 20.5907 86.811 21.1364 84.3239 22.1908C82.5121 17.7051 79.3662 13.8576 75.2953 11.1485C71.2244 8.4394 66.4167 6.99392 61.4971 6.99996C47.9719 6.99996 36.9673 17.746 36.9673 30.954C36.9673 31.32 36.9673 31.6926 36.9978 32.0686C31.4696 32.8199 26.4034 35.5022 22.7297 39.6227C19.0561 43.7433 17.0216 49.0254 17.0001 54.4989C16.9839 59.0213 18.3576 63.4436 20.9421 67.189C23.5265 70.9343 27.2019 73.829 31.4887 75.4954C33.7819 76.4136 37.8527 76.9359 38.1987 76.1607C38.3378 75.8513 37.9917 75.5286 37.0826 75.1194C34.7193 74.0724 32.4498 72.8327 30.298 71.4132C25.9694 68.4189 23.6864 65.3348 22.5364 63.2821C21.1118 60.5661 20.3764 57.5532 20.3925 54.4989C20.4068 49.5752 22.3307 44.8412 25.7736 41.2576C29.2165 37.674 33.9207 35.5092 38.9314 35.2026C39.1613 35.1883 39.3857 35.1282 39.5911 35.0261C39.7966 34.924 39.9786 34.7819 40.1262 34.6085C40.2738 34.4351 40.3838 34.234 40.4496 34.0176C40.5154 33.8011 40.5356 33.5738 40.5088 33.3495C40.4124 32.5544 40.3626 31.7547 40.3596 30.954C40.3596 19.5825 49.858 10.3269 61.4971 10.3269C66.0233 10.341 70.4267 11.7716 74.0663 14.4106C77.7059 17.0495 80.3915 20.7589 81.7322 24.9988C81.8061 25.2371 81.9336 25.456 82.1053 25.6395C82.277 25.823 82.4885 25.9663 82.7242 26.0589C82.96 26.1515 83.2139 26.191 83.4673 26.1745C83.7206 26.158 83.967 26.086 84.1882 25.9636C86.6677 24.5992 89.4672 23.8929 92.3102 23.9144C95.1532 23.9359 97.9412 24.6845 100.399 26.0862C102.857 27.4879 104.899 29.4943 106.324 31.907C107.749 34.3198 108.508 37.0554 108.525 39.8437V40.04C108.522 40.2817 108.573 40.5213 108.674 40.7418C108.775 40.9623 108.924 41.1586 109.11 41.317C109.296 41.4753 109.515 41.5919 109.752 41.6587C109.989 41.7254 110.238 41.7407 110.482 41.7034C111.336 41.5734 112.199 41.5077 113.064 41.5072C117.442 41.4974 121.646 43.1928 124.751 46.2207C127.857 49.2487 129.61 53.3617 129.625 57.6562C129.625 62.9294 126.646 68.3524 122.335 71.0339C120.299 72.3347 120.262 72.5809 115.065 75.1094C114.482 75.3922 113.837 75.7748 114.024 76.1707C114.149 76.4435 114.733 76.5633 115.543 76.5633C117.438 76.5104 119.31 76.1483 121.083 75.492C125.275 73.7068 128.711 70.5568 130.808 66.5744C132.906 62.5921 133.538 58.0215 132.597 53.6352C131.656 49.2488 129.199 45.3156 125.643 42.5003C122.086 39.685 117.648 38.1602 113.077 38.1835H113.06Z" fill="#231F20"/>
<path d="M41.0202 82.5219V85.087H39.6836V79.2149H41.0202V81.4972H41.7631L43.4592 79.2149H44.9858L42.7231 82.0628L45.1554 85.087H43.6288L41.6443 82.5219H41.0202Z" fill="#231F20"/>
<path d="M48.2365 85.2301C46.7778 85.2301 45.2852 84.2786 45.2852 82.1626C45.2852 80.0467 46.7778 79.0818 48.2365 79.0818C49.6952 79.0818 51.1878 80.0433 51.1878 82.1626C51.1878 84.2819 49.6952 85.2301 48.2365 85.2301ZM49.8173 82.1626C49.8173 80.8085 49.071 80.1431 48.2365 80.1431C47.402 80.1431 46.6556 80.8085 46.6556 82.1626C46.6556 83.5167 47.402 84.1588 48.2365 84.1588C49.071 84.1588 49.8173 83.52 49.8173 82.1626Z" fill="#231F20"/>
<path d="M56.3511 82.5884H53.678V85.087H52.3516V79.2149H53.678V81.5604H56.3511V79.2149H57.6741V85.087H56.3511V82.5884Z" fill="#231F20"/>
<path d="M64.1551 86.4743V85.0869H59.779V86.4743H58.5781V84.0722H58.9174C59.5958 84.0722 59.935 83.2205 60.03 81.078L60.1182 79.2115H64.4841V84.0689H65.3763V86.471L64.1551 86.4743ZM61.2716 80.2396L61.2173 81.2377C61.1257 82.788 60.9052 83.6264 60.4371 84.0756H63.151V80.2396H61.2716Z" fill="#231F20"/>
<path d="M70.5294 85.087V81.0148L67.6799 85.087H66.3535V79.2149H67.6799V83.3071L70.5294 79.2149H71.8558V85.087H70.5294Z" fill="#231F20"/>
<path d="M79.3404 86.4743H78.1362V85.087H73.3496V79.2149H74.6692V84.0623H77.1185V79.2149H78.4449V84.0623H79.337L79.3404 86.4743Z" fill="#231F20"/>
<path d="M84.506 85.087V81.0148L81.6565 85.087H80.3301V79.2149H81.6565V83.3071L84.506 79.2149H85.8324V85.087H84.506Z" fill="#231F20"/>
<path d="M89.8283 85.2301C88.3696 85.2301 86.877 84.2786 86.877 82.1626C86.877 80.0467 88.3696 79.0818 89.8283 79.0818C91.287 79.0818 92.7796 80.0433 92.7796 82.1626C92.7796 84.2819 91.2903 85.2301 89.8283 85.2301ZM91.4091 82.1626C91.4091 80.8085 90.6628 80.1431 89.8283 80.1431C88.9938 80.1431 88.2474 80.8085 88.2474 82.1626C88.2474 83.5167 88.9938 84.1588 89.8283 84.1588C90.6628 84.1588 91.4091 83.52 91.4091 82.1626Z" fill="#231F20"/>
<path d="M97.9239 82.5884H95.2541V85.087H93.9277V79.2149H95.2541V81.5604H97.9239V79.2149H99.2503V85.087H97.9239V82.5884Z" fill="#231F20"/>
<path d="M103.372 84.1488C104.051 84.1488 104.607 83.876 104.841 83.3304H106.144C105.971 83.898 105.611 84.3931 105.119 84.7371C104.628 85.0812 104.033 85.2547 103.43 85.2301C101.503 85.2301 100.4 83.7895 100.4 82.106C100.4 80.3394 101.639 79.0818 103.342 79.0818C105.177 79.0818 106.323 80.5457 106.215 82.5219H101.747C101.835 83.6132 102.616 84.1488 103.372 84.1488ZM104.865 81.5737C104.864 81.3782 104.824 81.1847 104.747 81.0043C104.67 80.824 104.557 80.6604 104.415 80.5231C104.273 80.3858 104.105 80.2774 103.92 80.2041C103.735 80.1309 103.537 80.0944 103.338 80.0966C102.928 80.0876 102.531 80.2377 102.233 80.5143C101.935 80.7909 101.76 81.1716 101.747 81.5737H104.865Z" fill="#231F20"/>
<path d="M108.635 80.0001C108.822 79.7047 109.086 79.4638 109.4 79.3023C109.714 79.1408 110.066 79.0647 110.42 79.0818C111.879 79.0818 112.991 80.2729 112.991 82.1493C112.991 84.0257 111.879 85.23 110.42 85.23C110.066 85.2472 109.714 85.171 109.4 85.0096C109.086 84.8481 108.822 84.6072 108.635 84.3118V87H107.312V79.2149H108.635V80.0001ZM111.611 82.1493C111.611 80.9183 111.054 80.1531 110.128 80.1531C109.26 80.1531 108.581 80.8185 108.581 82.1493C108.581 83.4801 109.26 84.1721 110.128 84.1721C111.054 84.1854 111.611 83.3969 111.611 82.1493Z" fill="#231F20"/>
<path d="M41.445 63.6049C43.7348 63.6049 45.6853 65.0854 45.6853 68.033C45.6853 70.9807 43.7348 72.4479 41.445 72.4479C39.1551 72.4479 37.2012 70.9807 37.2012 68.033C37.2012 65.0854 39.1518 63.6049 41.445 63.6049ZM41.445 70.1257C42.1743 70.1257 42.734 69.5934 42.734 68.033C42.734 66.4727 42.1743 65.9271 41.445 65.9271C40.7156 65.9271 40.1559 66.4727 40.1559 68.033C40.1559 69.5934 40.7122 70.1257 41.445 70.1257Z" fill="#231F20"/>
<path d="M46.3887 67.1447V66.8852C46.4735 63.8144 47.4064 61.256 51.1379 60.8966L53.6448 60.6638V63.2255L50.5646 63.5582C49.4316 63.6979 48.5292 64.1205 48.4275 65.6974C48.9159 64.7426 49.9913 64.4332 50.9513 64.4332C52.8273 64.4332 54.5166 65.764 54.5166 68.3158C54.5166 71.0638 52.3965 72.4345 50.378 72.4345C48.2103 72.4478 46.3887 70.8775 46.3887 67.1447ZM51.6027 68.3291C51.6027 66.9417 50.9988 66.5358 50.3543 66.5358C49.7097 66.5358 49.2111 66.9584 49.2111 68.3291C49.2111 69.5634 49.781 70.1256 50.3848 70.1256C50.9886 70.1256 51.6027 69.6399 51.6027 68.3291Z" fill="#231F20"/>
<path d="M54.9941 69.9693H55.252C55.7812 69.9693 56.2968 69.437 56.4257 66.6623L56.5716 63.8544H63.4749V72.245H60.6118V66.13H59.2074L59.0785 68.0962C58.919 70.4684 58.0167 72.245 55.5369 72.245H54.9941V69.9693Z" fill="#231F20"/>
<path d="M68.7353 65.5843C68.5771 65.5683 68.4172 65.5838 68.2652 65.6297C68.1131 65.6757 67.9721 65.7513 67.8505 65.8519C67.7289 65.9525 67.6293 66.0761 67.5575 66.2153C67.4857 66.3546 67.4433 66.5066 67.4327 66.6622H64.9665C65.0954 65.0686 66.3879 63.5549 68.9355 63.5549C71.1439 63.5549 72.7179 64.4598 72.6908 67.2678V68.8747C72.6722 69.9998 72.7198 71.1251 72.8333 72.2449H70.1669V71.1536C69.5936 72.0752 68.637 72.4478 67.548 72.4478C66.0419 72.4478 64.7969 71.4331 64.7969 69.936C64.7969 67.9864 66.6423 67.1613 69.8853 66.9417V66.7088C69.8819 65.7706 69.3527 65.5843 68.7353 65.5843ZM67.66 69.5767C67.66 69.936 67.9348 70.3419 68.6064 70.3419C69.3527 70.3419 69.9837 70.0092 69.9837 68.7183V68.4688C68.464 68.5786 67.66 68.8614 67.66 69.5933V69.5767Z" fill="#231F20"/>
<path d="M78.7395 69.4836C78.1104 69.6303 77.466 69.704 76.8194 69.7032C75.0995 69.7032 74.0547 68.8282 74.0547 66.9584V63.8544H76.9212V66.4727C76.9212 67.4242 77.2197 67.5806 78.0373 67.5806C78.2747 67.5827 78.5112 67.5514 78.7395 67.4874V63.8544H81.606V72.245H78.7395V69.4836Z" fill="#231F20"/>
<path d="M83.3066 63.8544H86.1731V66.8187H88.4222V63.8544H91.2921V72.245H88.4256V69.0943H86.1765V72.245H83.31L83.3066 63.8544Z" fill="#231F20"/>
<path d="M93.0098 63.8544H95.8729V66.303H96.8906C99.2957 66.303 100.313 67.2079 100.313 69.2341C100.313 71.4964 99.4111 72.245 97.0636 72.245H93.0098V63.8544ZM96.8058 70.139C97.3926 70.139 97.7658 69.9527 97.7658 69.2341C97.7658 68.5953 97.3926 68.409 96.8193 68.409H95.8729V70.139H96.8058ZM101.277 63.8544H104.14V72.245H101.277V63.8544Z" fill="#231F20"/>
<path d="M105.857 63.8543H108.507V68.5121L111.16 63.8543H113.809V72.2449H111.16V67.6737L108.507 72.2449H105.857V63.8543ZM107.062 60.9366H108.758C108.829 61.3092 109.189 61.4988 109.833 61.4988C110.478 61.4988 110.851 61.3092 110.909 60.9366H112.605C112.489 62.091 111.587 62.8862 109.826 62.8862C108.066 62.8862 107.146 62.091 107.062 60.9366Z" fill="#231F20"/>
</g>
<defs>
<clipPath id="clip0">
<rect width="116" height="80" fill="white" transform="translate(17 7)"/>
</clipPath>
</defs>
</svg>

<svg width="151" height="96" viewBox="0 0 151 96" fill="none" xmlns="http://www.w3.org/2000/svg"><circle cx="20" cy="52" r="20" fill="#D1D8E1"/><circle cx="116.5" cy="61.5" r="34.5" fill="#D1D8E1"/><circle cx="70.5" cy="12.5" r="12.5" fill="#D1D8E1"/><g clip-path="url(#clip0)" fill="#231F20"><path d="M113.06 38.184c-.4 0-.807 0-1.211.036-.855-9.9-9.451-17.633-19.648-17.633-2.71.004-5.39.55-7.877 1.604a24.14 24.14 0 00-9.029-11.042A24.86 24.86 0 0061.497 7c-13.525 0-24.53 10.746-24.53 23.954 0 .366 0 .739.03 1.115-5.527.75-10.594 3.433-14.267 7.554-3.674 4.12-5.708 9.402-5.73 14.876a22.195 22.195 0 003.942 12.69 22.865 22.865 0 0010.547 8.306c2.293.919 6.364 1.44 6.71.666.139-.31-.207-.632-1.116-1.042a46.595 46.595 0 01-6.785-3.706c-4.329-2.994-6.612-6.078-7.762-8.13a18.69 18.69 0 01-2.144-8.784c.015-4.924 1.939-9.658 5.382-13.241 3.442-3.584 8.147-5.749 13.157-6.055a1.723 1.723 0 001.195-.595 1.654 1.654 0 00.383-1.258 20.54 20.54 0 01-.15-2.396c0-11.372 9.499-20.627 21.138-20.627a21.535 21.535 0 0112.57 4.084 20.86 20.86 0 017.665 10.588c.074.238.202.457.373.64a1.727 1.727 0 002.083.324 16.593 16.593 0 018.122-2.049 16.59 16.59 0 018.089 2.172 16.183 16.183 0 015.925 5.821 15.791 15.791 0 012.201 7.937v.196a1.638 1.638 0 00.585 1.277 1.71 1.71 0 001.372.386c.854-.13 1.717-.195 2.582-.196 4.378-.01 8.582 1.686 11.687 4.714 3.106 3.028 4.859 7.14 4.874 11.435 0 5.273-2.979 10.696-7.29 13.378-2.036 1.3-2.073 1.547-7.27 4.075-.583.283-1.228.666-1.041 1.062.125.272.709.392 1.519.392a17.356 17.356 0 005.54-1.071c4.192-1.785 7.628-4.935 9.725-8.918a19.127 19.127 0 001.789-12.939c-.941-4.386-3.398-8.32-6.954-11.135a20.09 20.09 0 00-12.566-4.316h-.017zM41.02 82.522v2.565h-1.336v-5.872h1.336v2.282h.743l1.696-2.282h1.527l-2.263 2.848 2.432 3.024H43.63l-1.985-2.565h-.624zm7.216 2.708c-1.458 0-2.95-.951-2.95-3.067s1.492-3.081 2.95-3.081c1.46 0 2.952.961 2.952 3.08 0 2.12-1.493 3.068-2.952 3.068zm1.581-3.067c0-1.355-.746-2.02-1.58-2.02-.835 0-1.581.665-1.581 2.02 0 1.354.746 1.996 1.58 1.996.835 0 1.581-.639 1.581-1.996zm6.534.425h-2.673v2.499h-1.326v-5.872h1.326v2.345h2.673v-2.345h1.323v5.872h-1.323v-2.499zm7.804 3.886v-1.387H59.78v1.387h-1.2v-2.402h.338c.679 0 1.018-.852 1.113-2.994l.088-1.867h4.366v4.858h.892v2.402l-1.22.003zm-2.883-6.234l-.055.998c-.091 1.55-.312 2.388-.78 2.838h2.714V80.24h-1.88zm9.258 4.847v-4.072l-2.85 4.072h-1.327v-5.872h1.327v4.092l2.85-4.092h1.326v5.872h-1.327zm8.81 1.387h-1.204v-1.387H73.35v-5.872h1.32v4.847h2.448v-4.847h1.327v4.847h.892l.003 2.412zm5.166-1.387v-4.072l-2.85 4.072H80.33v-5.872h1.326v4.092l2.85-4.092h1.326v5.872h-1.326zm5.322.143c-1.458 0-2.951-.951-2.951-3.067s1.493-3.081 2.951-3.081c1.459 0 2.952.961 2.952 3.08 0 2.12-1.49 3.068-2.952 3.068zm1.581-3.067c0-1.355-.746-2.02-1.58-2.02-.835 0-1.582.665-1.582 2.02 0 1.354.747 1.996 1.581 1.996.835 0 1.581-.639 1.581-1.996zm6.515.425h-2.67v2.499h-1.326v-5.872h1.326v2.345h2.67v-2.345h1.326v5.872h-1.326v-2.499zm5.448 1.561c.679 0 1.235-.273 1.469-.819h1.303a2.666 2.666 0 01-1.025 1.407 2.75 2.75 0 01-1.689.493c-1.927 0-3.03-1.44-3.03-3.124 0-1.767 1.239-3.024 2.942-3.024 1.835 0 2.981 1.464 2.873 3.44h-4.468c.088 1.091.869 1.627 1.625 1.627zm1.493-2.575a1.47 1.47 0 00-.45-1.05 1.514 1.514 0 00-1.077-.427 1.574 1.574 0 00-1.105.417 1.513 1.513 0 00-.486 1.06h3.118zm3.77-1.574c.187-.295.451-.536.765-.698a2.018 2.018 0 011.02-.22c1.459 0 2.571 1.19 2.571 3.067 0 1.877-1.112 3.081-2.571 3.081a2.018 2.018 0 01-1.02-.22 1.971 1.971 0 01-.765-.698V87h-1.323v-7.785h1.323V80zm2.976 2.15c0-1.232-.557-1.997-1.483-1.997-.868 0-1.547.665-1.547 1.996s.679 2.023 1.547 2.023c.926.013 1.483-.775 1.483-2.023z"/><path d="M41.445 63.605c2.29 0 4.24 1.48 4.24 4.428s-1.95 4.415-4.24 4.415-4.244-1.467-4.244-4.415 1.95-4.428 4.244-4.428zm0 6.52c.73 0 1.289-.532 1.289-2.092s-.56-2.106-1.289-2.106c-.73 0-1.29.546-1.29 2.106 0 1.56.557 2.093 1.29 2.093zm4.944-2.98v-.26c.084-3.07 1.017-5.629 4.749-5.988l2.507-.233v2.561l-3.08.333c-1.133.14-2.036.563-2.137 2.14.488-.955 1.563-1.265 2.523-1.265 1.876 0 3.566 1.331 3.566 3.883 0 2.748-2.12 4.118-4.139 4.118-2.168.014-3.99-1.556-3.99-5.29zm5.214 1.184c0-1.387-.604-1.793-1.249-1.793-.644 0-1.143.422-1.143 1.793 0 1.234.57 1.797 1.174 1.797s1.218-.486 1.218-1.797zm3.391 1.641h.258c.53 0 1.045-.533 1.174-3.308l.146-2.808h6.903v8.391h-2.863V66.13h-1.405l-.129 1.966c-.159 2.372-1.061 4.149-3.541 4.149h-.543v-2.276zm13.741-4.386a1.207 1.207 0 00-.885.268 1.165 1.165 0 00-.417.81h-2.467c.13-1.593 1.422-3.107 3.97-3.107 2.208 0 3.782.905 3.755 3.713v1.607c-.019 1.125.029 2.25.142 3.37h-2.666v-1.091c-.573.921-1.53 1.294-2.619 1.294-1.506 0-2.751-1.015-2.751-2.512 0-1.95 1.845-2.775 5.088-2.994v-.233c-.003-.938-.532-1.125-1.15-1.125zm-1.075 3.993c0 .359.275.765.946.765.747 0 1.378-.333 1.378-1.624v-.25c-1.52.11-2.324.393-2.324 1.125v-.016zm11.08-.093a8.41 8.41 0 01-1.92.22c-1.72 0-2.765-.876-2.765-2.746v-3.104h2.866v2.619c0 .951.299 1.108 1.116 1.108.238.002.474-.03.703-.094v-3.633h2.866v8.391H78.74v-2.761zm4.567-5.63h2.866v2.965h2.25v-2.965h2.87v8.391h-2.867v-3.15h-2.25v3.15H83.31l-.003-8.39zm9.703 0h2.863v2.449h1.018c2.405 0 3.422.905 3.422 2.931 0 2.262-.902 3.011-3.25 3.011H93.01v-8.39zm3.796 6.285c.587 0 .96-.186.96-.905 0-.639-.373-.825-.947-.825h-.946v1.73h.933zm4.471-6.285h2.863v8.391h-2.863v-8.39zm4.58 0h2.65v4.658l2.653-4.658h2.649v8.39h-2.649v-4.57l-2.653 4.57h-2.65v-8.39zm1.205-2.917h1.696c.071.372.431.562 1.075.562.645 0 1.018-.19 1.076-.562h1.696c-.116 1.154-1.018 1.95-2.779 1.95-1.76 0-2.68-.796-2.764-1.95z"/></g><defs><clipPath id="clip0"><path fill="#fff" transform="translate(17 7)" d="M0 0h116v80H0z"/></clipPath></defs></svg>
